X: 1
T: the Sailor's Wife
R: jig
S: Fiddle Hell Online 2022-3-26 handout for Fiddle Hell jam session
B: the Portland Collection 1 p.181
Z: 2022 John Chambers <jc:trillian.mit.edu>
M: 6/8
L: 1/8
K: Dm
|:E |\
"D"DEF E2D | d2e f2g | agf edc | "C"A/B/cA GEC |
"D"DEF E2D | d2e f2g | afd "A"ge^c | "Dm"D3 D2 :|
|: e |\
"F"fga fga | fga agf | "C"ecg ecg | efg gfe |
"F"fga fga | "C"efg gfe | "Dm"afd "A"ge^c | "Dm"D3 D2 :|
